assets/icons/qvision/reset_tv.svg

<svg xmlns="http://www.w3.org/2000/svg" height="24" viewBox="0 0 24 24" width="24"><path d="M0 0h24v24H0V0z" fill="none"/><path d="M21 10h-8.01V7L9 11l3.99 4v-3H21v5H3V5h18v3h2V5c0-1.1-.9-2-2-2H3c-1.1 0-2 .9-2 2v12c0 1.1.9 2 2 2h5v2h8v-2h5c1.1 0 1.99-.9 1.99-2v-5H23c0-1.1-.9-2-2-2z"/></svg>

<svg width="24" height="24" viewBox="0 0 24 24" fill="none" xmlns="http://www.w3.org/2000/svg">
<g clip-path="url(#clip0_147_2426)">
<path d="M21 10H12.99V7L9 11L12.99 15V12H21V17H3V5H21V8H23V5C23 3.9 22.1 3 21 3H3C1.9 3 1 3.9 1 5V17C1 18.1 1.9 19 3 19H8V21H16V19H21C22.1 19 22.99 18.1 22.99 17V12H23C23 10.9 22.1 10 21 10Z" fill="#323232"/>
</g>
<defs>
<clipPath id="clip0_147_2426">
<rect width="24" height="24" fill="white"/>
</clipPath>
</defs>
</svg>
